icons/svg/glass-tulip.svg

﻿<?xml version="1.0" encoding="utf-8"?>
<!DOCTYPE svg PUBLIC "-//W3C//DTD SVG 1.1//EN" "http://www.w3.org/Graphics/SVG/1.1/DTD/svg11.dtd">
<svg xmlns="http://www.w3.org/2000/svg" xmlns:xlink="http://www.w3.org/1999/xlink" version="1.1" baseProfile="full" width="24" height="24" viewBox="0 0 24.00 24.00" enable-background="new 0 0 24.00 24.00" xml:space="preserve">
	<path fill="#000000" fill-opacity="1" stroke-width="0.2" stroke-linejoin="round" d="M 8,1.99998L 16,1.99998C 15.6667,2.66666 15.3333,3.33332 15.5833,4.99999C 15.8333,6.66666 16.6667,9.33333 16.25,10.7361C 15.8333,12.1389 14.1667,12.2777 13.3333,13.8611C 12.5,15.4444 12.5,18.4722 13.0833,19.9028C 13.6667,21.3333 14.8333,21.1667 15.4167,21.25C 16,21.3333 16,21.6667 16,22L 8,22C 8,21.6667 8,21.3333 8.58333,21.25C 9.16667,21.1667 10.3333,21.3333 10.9167,19.9027C 11.5,18.4722 11.5,15.4444 10.6667,13.8611C 9.83333,12.2778 8.16667,12.1389 7.75,10.7361C 7.33333,9.33333 8.16667,6.66667 8.41667,4.99999C 8.66667,3.33332 8.33333,2.66666 8,1.99998 Z M 9.99999,4.00001C 9.99999,5.19104 9.82924,6.17192 9.64418,7L 14.2689,7C 14.1313,6.17192 14,5.19105 14,4.00002L 9.99999,4.00001 Z "/>
</svg>

<svg xmlns="http://www.w3.org/2000/svg" version="1.1" baseProfile="full" width="24" height="24" viewBox="0 0 24.00 24.00" xml:space="preserve"><path fill="#000" fill-opacity="1" stroke-width=".2" stroke-linejoin="round" d="M8 2h8c-.333.667-.667 1.333-.417 3 .25 1.667 1.084 4.333.667 5.736-.417 1.403-2.083 1.542-2.917 3.125-.833 1.584-.833 4.612-.25 6.043.584 1.43 1.75 1.264 2.334 1.347.583.083.583.417.583.75H8c0-.333 0-.667.583-.75.584-.083 1.75.083 2.334-1.347.583-1.43.583-4.46-.25-6.042-.834-1.582-2.5-1.72-2.917-3.124-.417-1.403.417-4.07.667-5.736.25-1.667-.084-2.333-.417-3zm2 2c0 1.19-.17 2.172-.356 3h4.625c-.14-.828-.27-1.81-.27-3h-4z"/></svg>
